X: 3402
T: Royal Albert Country Dance
P: The Princess Charlotte's Favourite
C:Trad. (Astor's 24 Country Dances for the year 1804)
R:Reel (8x32)
B:RSCDS 34-2
Z:Anselm Lingnau <anselm@strathspey.org>
M:C|
L:1/8
K:A
e|"A"ceea "D"f2 ed|"A"c2 AB/c/ "E"BEEe|"A"ceea "D"gfed|"A"cA"E7"BG A2 Ae|
  "A"ceea "D"f2 ed|"A"c2 AB/c/ "E"BEEe|"A"ceea "D"gfed|"A"cA"E7"BG A2 A||
B|"A"cAAc "D"dBBd|"A"cAAc "E7"BEEe|"A"cAAc "D"dBBd|"A"cA"E7"BG "A"A2 AB|
  "A"cAAc "D"dBBd|"A"cAAc "E7"BEEe|"A"cAec "D"dBfd|"A"cA"E7"BG "A"A2 A|]
%%center Book34/3402-Royal_Albert_Country_Dance-AL.abc

%%sep 1 1 500
%%sep 1 1 500

